modules/themify-icons/icons/unlock.svg

<?xml version="1.0" encoding="utf-8"?>
<!-- Generated by IcoMoon.io -->
<!DOCTYPE svg PUBLIC "-//W3C//DTD SVG 1.1//EN" "http://www.w3.org/Graphics/SVG/1.1/DTD/svg11.dtd">
<svg version="1.1" xmlns="http://www.w3.org/2000/svg" xmlns:xlink="http://www.w3.org/1999/xlink" width="17" height="17" viewBox="0 0 17 17">
<g>
</g>
	<path d="M9.5 10.972c0 0.366-0.207 0.672-0.5 0.846v2.154h-1v-2.153c-0.294-0.174-0.5-0.48-0.5-0.847 0-0.552 0.447-1 1-1 0.551 0 1 0.447 1 1zM14.994 8.46v7.080c0 0.827-0.673 1.5-1.5 1.5h-9.988c-0.827 0-1.5-0.673-1.5-1.5v-7.080c0-0.827 0.673-1.5 1.5-1.5h8.994v-1.988c0-2.206-1.794-4-4-4s-4 1.794-4 4h-1c0-2.757 2.243-5 5-5s5 2.243 5 5v1.988c0.824 0.004 1.494 0.675 1.494 1.5zM13.994 8.46c0-0.276-0.225-0.5-0.5-0.5h-9.988c-0.275 0-0.5 0.224-0.5 0.5v7.080c0 0.276 0.225 0.5 0.5 0.5h9.988c0.275 0 0.5-0.224 0.5-0.5v-7.080z" fill="#000000" />
</svg>

<svg xmlns="http://www.w3.org/2000/svg" width="17" height="17"><path d="M9.5 10.972a.985.985 0 0 1-.5.846v2.154H8v-2.153a.984.984 0 0 1-.5-.847 1 1 0 1 1 2 0zm5.494-2.512v7.08c0 .827-.673 1.5-1.5 1.5H3.506c-.827 0-1.5-.673-1.5-1.5V8.46c0-.827.673-1.5 1.5-1.5H12.5V4.972c0-2.206-1.794-4-4-4s-4 1.794-4 4h-1c0-2.757 2.243-5 5-5s5 2.243 5 5V6.96a1.503 1.503 0 0 1 1.494 1.5zm-1 0a.5.5 0 0 0-.5-.5H3.506a.5.5 0 0 0-.5.5v7.08a.5.5 0 0 0 .5.5h9.988a.5.5 0 0 0 .5-.5V8.46z"/></svg>
